assets/icons/ic_two_eyes.svg

<svg fill="none" height="6" viewBox="0 0 32 6" width="32" xmlns="http://www.w3.org/2000/svg"><path clip-rule="evenodd" d="m1.64441.369818c-.25969.158305-1.112011 1.085682-1.417175 1.541832-.2140967.32011-.2463081.41068-.21891278.61596.03827838.28721.23974078.5207.51463178.59663.334561.09238.513386.01607.828556-.35345.16174-.18964.39366-.45628.51538-.5925l.22123-.24781.50625.33462c.27839.18401.55353.36271.61133.39711.09532.05666.08137.12246-.14893.70271-.34744.8754-.33074 1.20883.07274 1.45489.25038.15261.50288.15956.73868.02027.20334-.12009.29334-.28065.56642-1.01026.17444-.46622.20915-.51719.32918-.4836.07381.02057.38754.1032.69714.18351l.56292.14604-.02201.69264c-.02521.79509.04265 1.07899.30197 1.26369.21328.15186.60507.16581.80103.02852.20134-.14098.32624-.41931.32675-.72798.00025-.14792.01801-.45483.03946-.682l.03903-.41306.72316-.03878c.39774-.02133.73142-.03046.74155-.02033.01014.01007.08663.28741.17007.61621.08337.32881.19683.68526.25206.79203.25819.49937 1.00178.49893 1.26018-.00069.1152-.22273.1027-.36402-.1002-1.13409-.0866-.32868-.1216-.56986-.0872-.6007.0316-.02833.3373-.15843.6794-.28909l.6219-.23755.0974.15005c.5857.90229.7405 1.09731.9537 1.20151.4776.23349.988-.10413.9885-.65385.0002-.15875-.0683-.33012-.2251-.56292-.3066-.45553-.5453-.86746-.5171-.89298.0128-.01157.2047-.16587.4265-.34288.4907-.3916.6278-.58862.6283-.903231.0004-.190767-.0438-.285024-.2122-.453462-.1757-.17563-.2594-.212657-.4805-.212657-.2268 0-.3354.051163-.7099.334311-1.5253 1.153229-2.8492 1.663739-4.58412 1.767689-1.80246.10802-3.78362-.51057-5.19592-1.622331-.66618-.524452-.91743-.595005-1.29615-.364021zm16.44469.097009c-.1685.168438-.2126.262695-.2123.453462.0005.314481.1375.511381.6283.903731.2218.17732.4108.34126.42.36434.0091.02301-.1528.30597-.3597.62871-.4179.65174-.466.88554-.2538 1.23361.0859.14091.198.22053.3787.26926.4163.11208.6409-.03959 1.1122-.75081.2165-.3268.4135-.60107.4378-.60945s.3256.09469.6696.22904c.6227.24312.6254.24512.6148.45034-.0058.1134-.0733.42638-.1499.69564-.1208.424-.1294.52314-.0642.74061.1774.59213 1.007.66362 1.2925.1114.0552-.10677.1687-.46322.2521-.79203.0834-.3288.1599-.60614.17-.61621.0102-.01013.3438-.001.7416.02033l.7231.03878.0391.41306c.0214.22717.0392.53408.0394.682.0005.30867.1254.587.3268.72798.1959.13729.5877.12334.801-.02852.2593-.1847.3272-.4686.302-1.26369l-.022-.69264.5629-.14604c.3096-.08031.6211-.16237.6921-.18226.1125-.03159.1522.02295.3064.42106.3019.77908.3998.95677.5891 1.06854.2407.14217.4918.13635.7438-.01726.4035-.24606.4202-.57949.0727-1.45489-.2303-.58025-.2442-.64605-.1489-.70271.0578-.0344.333-.2131.6114-.39711l.5062-.33462.2212.24781c.1217.13622.3537.40286.5154.5925.3152.36952.494.44583.8286.35345.2749-.07593.4763-.30942.5146-.59663.0274-.20547-.0049-.29603-.2207-.61877-.3148-.47104-1.2163-1.441137-1.4528-1.563415-.3785-.195708-.6058-.125593-1.2587.388414-1.4123 1.111761-3.3935 1.730351-5.196 1.622331-1.7349-.10395-3.0588-.61446-4.5841-1.767689-.3745-.283148-.4831-.334311-.7099-.334311-.2211 0-.3048.037027-.4804.212657z" fill="#9d00e7" fill-rule="evenodd"/></svg>

<svg width="32" height="6" viewBox="0 0 32 6" fill="none" xmlns="http://www.w3.org/2000/svg">
<path fill-rule="evenodd" clip-rule="evenodd" d="M1.64441 0.369818C1.38472 0.528123 0.532399 1.4555 0.227235 1.91165C0.0131383 2.23176 -0.0190731 2.32233 0.00832222 2.52761C0.0466006 2.81482 0.248063 3.04831 0.522954 3.12424C0.857515 3.21662 1.03634 3.14031 1.35151 2.77079C1.51325 2.58115 1.74517 2.31451 1.86689 2.17829L2.08812 1.93048L2.59437 2.2651C2.87276 2.44911 3.1479 2.62781 3.2057 2.66221C3.30102 2.71887 3.28707 2.78467 3.05677 3.36492C2.70933 4.24032 2.72603 4.57375 3.12951 4.81981C3.37989 4.97242 3.63239 4.97937 3.86819 4.84008C4.07153 4.71999 4.16153 4.55943 4.43461 3.82982C4.60905 3.3636 4.64376 3.31263 4.76379 3.34622C4.8376 3.36679 5.15133 3.44942 5.46093 3.52973L6.02385 3.67577L6.00184 4.36841C5.97663 5.1635 6.04449 5.4474 6.30381 5.6321C6.51709 5.78396 6.90888 5.79791 7.10484 5.66062C7.30618 5.51964 7.43108 5.24131 7.43159 4.93264C7.43184 4.78472 7.4496 4.47781 7.47105 4.25064L7.51008 3.83758L8.23324 3.7988C8.63098 3.77747 8.96466 3.76834 8.97479 3.77847C8.98493 3.78854 9.06142 4.06588 9.14486 4.39468C9.22823 4.72349 9.34169 5.07994 9.39692 5.18671C9.65511 5.68608 10.3987 5.68564 10.6571 5.18602C10.7723 4.96329 10.7598 4.822 10.5569 4.05193C10.4703 3.72325 10.4353 3.48207 10.4697 3.45123C10.5013 3.4229 10.807 3.2928 11.1491 3.16214L11.771 2.92459L11.8684 3.07464C12.4541 3.97693 12.6089 4.17195 12.8221 4.27615C13.2997 4.50964 13.8101 4.17202 13.8106 3.6223C13.8108 3.46355 13.7423 3.29218 13.5855 3.05938C13.2789 2.60385 13.0402 2.19192 13.0684 2.1664C13.0812 2.15483 13.2731 2.00053 13.4949 1.82352C13.9856 1.43192 14.1227 1.2349 14.1232 0.920289C14.1236 0.729522 14.0794 0.635265 13.911 0.466827C13.7353 0.291197 13.6516 0.25417 13.4305 0.25417C13.2037 0.25417 13.0951 0.305333 12.7206 0.588481C11.1953 1.74171 9.8714 2.25222 8.13648 2.35617C6.33402 2.46419 4.35286 1.8456 2.94056 0.733839C2.27438 0.209387 2.02313 0.138834 1.64441 0.369818ZM18.0891 0.466827C17.9206 0.635265 17.8765 0.729522 17.8768 0.920289C17.8773 1.23477 18.0143 1.43167 18.5051 1.82402C18.7269 2.00134 18.9159 2.16528 18.9251 2.18836C18.9342 2.21137 18.7723 2.49433 18.5654 2.81707C18.1475 3.46881 18.0994 3.70261 18.3116 4.05068C18.3975 4.19159 18.5096 4.27121 18.6903 4.31994C19.1066 4.43202 19.3312 4.28035 19.8025 3.56913C20.019 3.24233 20.216 2.96806 20.2403 2.95968C20.2646 2.9513 20.5659 3.05437 20.9099 3.18872C21.5326 3.43184 21.5353 3.43384 21.5247 3.63906C21.5189 3.75246 21.4514 4.06544 21.3748 4.3347C21.254 4.7587 21.2454 4.85784 21.3106 5.07531C21.488 5.66744 22.3176 5.73893 22.6031 5.18671C22.6583 5.07994 22.7718 4.72349 22.8552 4.39468C22.9386 4.06588 23.0151 3.78854 23.0252 3.77847C23.0354 3.76834 23.369 3.77747 23.7668 3.7988L24.4899 3.83758L24.529 4.25064C24.5504 4.47781 24.5682 4.78472 24.5684 4.93264C24.5689 5.24131 24.6938 5.51964 24.8952 5.66062C25.0911 5.79791 25.4829 5.78396 25.6962 5.6321C25.9555 5.4474 26.0234 5.1635 25.9982 4.36841L25.9762 3.67577L26.5391 3.52973C26.8487 3.44942 27.1602 3.36736 27.2312 3.34747C27.3437 3.31588 27.3834 3.37042 27.5376 3.76853C27.8395 4.54761 27.9374 4.7253 28.1267 4.83707C28.3674 4.97924 28.6185 4.97342 28.8705 4.81981C29.274 4.57375 29.2907 4.24032 28.9432 3.36492C28.7129 2.78467 28.699 2.71887 28.7943 2.66221C28.8521 2.62781 29.1273 2.44911 29.4057 2.2651L29.9119 1.93048L30.1331 2.17829C30.2548 2.31451 30.4868 2.58115 30.6485 2.77079C30.9637 3.14031 31.1425 3.21662 31.4771 3.12424C31.752 3.04831 31.9534 2.81482 31.9917 2.52761C32.0191 2.32214 31.9868 2.23158 31.771 1.90884C31.4562 1.4378 30.5547 0.467703 30.3182 0.345425C29.9397 0.149717 29.7124 0.219832 29.0595 0.733839C27.6472 1.8456 25.666 2.46419 23.8635 2.35617C22.1286 2.25222 20.8047 1.74171 19.2794 0.588481C18.9049 0.305333 18.7963 0.25417 18.5695 0.25417C18.3484 0.25417 18.2647 0.291197 18.0891 0.466827Z" fill="#9D00E7"/>
</svg>
